icons/fill-ele-symbol-plus-circle.svg

<svg xmlns="http://www.w3.org/2000/svg" width="32px" height="32px" viewBox="0 0 32 32" version="1.1">
    <title>fill-ele-symbol-plus-circle</title>
    <g id="fill-ele-symbol-plus-circle" stroke-width="1" fill-rule="evenodd">
        <path d="M16,2 C23.7319865,2 30,8.2680135 30,16 C30,23.7319865 23.7319865,30 16,30 C8.2680135,30 2,23.7319865 2,16 C2,8.2680135 8.2680135,2 16,2 Z M16,9 C15.4477153,9 15,9.44771525 15,10 L15,15 L10,15 C9.48716416,15 9.06449284,15.3860402 9.00672773,15.8833789 L9,16 C9,16.5522847 9.44771525,17 10,17 L15,17 L15,22 C15,22.5128358 15.3860402,22.9355072 15.8833789,22.9932723 L16,23 C16.5522847,23 17,22.5522847 17,22 L17,17 L22,17 C22.5128358,17 22.9355072,16.6139598 22.9932723,16.1166211 L23,16 C23,15.4477153 22.5522847,15 22,15 L17,15 L17,10 C17,9.48716416 16.6139598,9.06449284 16.1166211,9.00672773 L16,9 Z" id="&#24418;&#29366;" />
    </g>
</svg>

<svg xmlns="http://www.w3.org/2000/svg" viewBox="0 0 32 32"><path fill="currentColor" d="M16 2c7.732 0 14 6.268 14 14s-6.268 14-14 14S2 23.732 2 16 8.268 2 16 2m0 7a1 1 0 0 0-1 1v5h-5a1 1 0 0 0-.993.883L9 16a1 1 0 0 0 1 1h5v5a1 1 0 0 0 .883.993L16 23a1 1 0 0 0 1-1v-5h5a1 1 0 0 0 .993-.883L23 16a1 1 0 0 0-1-1h-5v-5a1 1 0 0 0-.883-.993z"/></svg>
